X:1
T:[ID 2-30]
T:[ID 2-30]
T:Bezeichnung standardisiert: Gesundheit Herr Nachbar; Waltzer Wenns immer so w\"ar, so ists recht In dieser Quelle auch als: Trinklied. Wenns immer so w\"ar; In dieser Quelle auch als: Waltzer In dieser Quelle auch als: Waltzer Gesundheit Herr Nachbar da Gl\"aschen ist leer In dieser Quelle auch als: Waltzer oder Schleifer Tantz. In anderer Quelle: 1. Walzer - W. M. Visser 1817 (Anm. S. Wascher);
T:Urheber unbekannt Erstbeleg: 1767 (Datum in der schriftlichen Quelle) Datum in der hier transkribierten schriftlichen Quelle: 1796
C:Urheber unbekannt
C:Erstbeleg: 1767 (Datum in der schriftlichen Quelle)
C:Datum in der hier transkribierten schriftlichen Quelle: 1796
L:1/8
M:6/8
K:G
V:1 treble 
V:1
 D | GGD GGD | GGD G2 A | BBA BBA | BBA B2 d |"^O)" dgBdcB | ceAcBA |"^O)" dgBdcB | ceAcBA | %9
 BBB AAA | ^ccc d2 D | GG/A/B/G/ EEE | cAF G2 d | cc/B/c/e/ dd/c/B/d/ | cc/B/c/e/ d2 B | %15
 cc/B/c/e/ d2 B/d/ | d/c/B/A/G/F/ G2 d | ec/e/g/e/ e/d/c/B/A/G/ | F/G/A/B/c/d/ cBd | %19
 ec/e/g/e/ e/d/c/B/A/G/ | F/G/A/c/A/F/ G2 :| %21

